X:1
T:Sonata in F minor
T:Sonata in F minor
T:Op. 2 No. 1, Movement I
T:Ludwig van Beethoven (1770-1827) 
C:Ludwig van Beethoven (1770-1827)
%%score { ( 1 3 ) | ( 2 4 ) }
L:1/8
Q:1/4=200
M:2/2
K:Ab
V:1 treble nm="Grand Piano" snm="Pno."
V:3 treble 
V:2 bass 
V:4 bass 
V:1
!p!"^Allegro" .C2 | .F2 .A2 .c2 .f2 | (a3 (3g/f/=e/ .f2) z2 | .G2 .c2 .=e2 .g2 | %4
 (b3 (3a/g/f/ .g2) z2 |!>(!{/c} (a3 (3g/f/=e/ .f2)!>)!!mp! z2 | %6
!>(!{/c} (b3 (3a/g/f/ .g2)!>)!!mf! z2 |!ff!!>(! !arpeggio![cfac']4 (bagf)!>)! | %8
!p!{=efg} (f2 .=e2) !fermata!z2 z2 | z8 | z8 | z2 z (3(e/_d/c/ .d2) .d2 | d8- | %13
 d3 (3(e/d/c/ .d2) .d2 | z2 z (3(d/c/=B/ .c2) .c2 | (c2 _B4 A2) |!p! .G2 (e2 _d2) c2- | (c2 B4 A2 | %18
!p! .G2)!f! (([Ee]2 [_D_d]2 [Cc]2-) | [Cc]2 ([B,B]4 [A,A]2 | [G,G]2)) z2 z2!p! (_f2 | %21
 e2 _d2 B2 G2) |!>(! (_F3 E!>)!!p! .A2) (_f2 | e2 _d2 B2 G2) |!>(! (_F3 E!>)!!p! .A2) (_f2 | %25
 e2 _d2 B2 G2) | z (GBA) z (=AcB) | z (=Bdc) z!<(! (=d!<)!!mp!!>(!Ma!>)!!p!d) | %28
 e2 z2 z!<(! (=d!<)!!mp!!>(!Ma!>)!!p!d) | e2 z2 z!<(! (g!<)!!mp!!>(!M_f'!>)!!p!g) | %30
 a2 z2 z!<(! (g!<)!!mp!!>(!M_f'!>)!!p!g) |!<(! z (gba) z (=ac'b) | z (=bd'c') z (c'e'd')!<)! | %33
!f! z (=d'f'e' _d'c'ba | gfed cBAG |!p! FE=DE DEDE | =DEFE DEFE) |!f! z (af'e' d'c'ba | gfed cBAG | %39
!p! FEDC B,A,G,F, | E,F,G,A, B,CDB, | A,2) z2"_con espressione"{/=D} (_c3 B) | A4!<(! (G3 e)!<)! | %43
 (e2!mp! A2){/=D} (_c3 B) | A4!<(! (G3 e)!<)! | (e2!mf! A2){/=d} (_c'3 b) |!<(! a4 (g3 e')!<)! | %47
!ff!!>(! ([dge']8!>)! |!p! [cea]2) z2 z2 ::!p! .E2 | .A2 .c2 .e2 .a2 | (c'3 (3b/a/g/ .a2) z2 | %52
{/d} (d'3 (3c'/b/=a/ .b2) z2 | .B2 .d2 .g2 .b2 |{/d} (d'3 (3c'/b/=a/ .b2) z2 | %55
{/d} (d'3!<(! (3c'/b/=a/ .b2) z2!<)! | =a2 z2 z2!p! (_g2 | f2 _e2 c2 =A2) | %58
!>(! (_G3 F!>)!!p! .B2) _g2 | (f2 _e2 c2 =A2) |!>(! (_G3 F!>)!!p! .B2) _g2 | (f2 _e2 c2 =A2) | %62
 z (=AcB)!<(! z (Bdc) | z (ced) z (=B=dc)!<)! | =B2 z2 z2 (_a2 | g2 f2 =d2 =B2) | %66
!>(! (A3 G!>)!!p! .c2) (_a2 | g2 f2 =d2 =B2) |!>(! (A3 G!>)!!p! .c2) F=D | F=DFD FDFD | %70
 z2 (=B2 c2) z2 | z8 | z2 (=A2 B2) z2 | z8 | z4 G4 | z4 A4 | z4 F4 | z4 G4 | z4 =E4 | z4 F4 | %80
 z4 F4 | =DF,[A,DF]F, [A,DF]F,[A,DF]F, |!p! [G,C=E]2 z2 z2 (c2 | .A2) z2 z2 (f2 | %84
 .=e2) z2 z2 (c'2 | .f2) z2!>(! (([ff']4!>)! |!p! .[=e=e']2)) z2 z2 (Tc2{=Bc} | %87
 .A2) .A2 z2 (Tf2{=ef} | .=e2) .e2 z2 (Tc'2{=bc'} | .f2) .f2 z2 ([ff']2 | %90
 .[=e=e']2) .[ee']2 z2 ([dd']2 | .[cc']2) .[cc']2"_decresc." z2 ([ff']2 | %92
 .[=e=e']2) .[ee']2 z2 ([dd']2 | .[cc']2) .[cc']2 z2 ([ff']2 |!pp! .[=e=e']2) z2 z4 | z8 | %96
 z2 z!pp! (3(A/_G/F/ .G2) z2 | z2 z (3(e'/d'/c'/ .d'2) z2 |"_cresc." z2 z (3(F/=E/=D/ .E2) z2 | %99
 z2 z (3(_d'/c'/=b/ .c'2) z2 | z2 z (3(E/=D/C/ .D2) z2 | z2 z (3(c'/b/=a/ .b2) z2 | %102
!f! .F2 .A2 .c2 .f2 | (!>!a3 (3g/f/=e/ .f2) z2 | .G2 .c2 .=e2 .g2 | (!>!b3 (3a/g/f/ .g2) z2 | %106
{/c} (a3 (3g/f/=e/ .f2) z2 |{/c} (b3 (3a/g/f/ .g2) z2 |!ff! !arpeggio![cfac']4 (bagf) | %109
{=efg} (f2 .=e2) !fermata!z2 z2 | z8 | z8 | (b3 (3a/_g/f/ .g2) .g2 | _g8- | %114
 g3 (3(_g/f/=e/ .f2) .f2 | f8 | z2 z (3(=g/f/=e/ .f2) (g2 | _a2 =e2 f2 =B2) | %118
!p!!<(! (c2 =e2 f2 g2!<)! |!mp!!>(! a2 =e2 f2 =B2)!>)! |!p! [=Ec]2 z2 z2!p! (d2 | c2 _B2 G2 =E2) | %122
!>(! (D3 C!>)!!p! .F2) (d'2 | c'2 b2 g2 =e2) |!>(! (d3 c!>)!!p! .f2) (d'2 | c'2 b2 g2 =e2) | %126
 z (=egf) z (fag) | z (gba) z!<(! (=b!<)!!mp!!>(!Mf'!>)!!p!b) | %128
 c'2 z2 z!<(! (=b!<)!!mp!!>(!Mf'!>)!!p!b) | c'2 z2 z!<(! (=e!<)!!mp!!>(!M_d'!>)!!p!e) | %130
 f2 z2 z!<(! (=e!<)!!mp!!>(!Md'!>)!!p!e) |"_cresc." z (=egf) z (fag) | z (gba) z (=ac'b) | %133
!ff! z (c'f'_e' d'c'b_a | gfed cBAG | F=ED!>(!C =B,CB,C!>)! |!pp! =B,CDC B,CDC) | %137
!ff! z (c'f'_e' d'c'ba | gfed cBAG | F=ED!>(!C =B,CDC!>)! |!p! =B,CDC) (C_B,A,G, | %141
 F,2) z2"_con espressione" (A3 G) | F4 (=E3 c) | (c2!mp! F2) (A3 G) | F4 (=E3 c) | %145
 (c2!mf! F2){/=B} (a3 g) |!<(! f4 (=e3 c')!<)! |!ff! ([c_ec']8 | [Bdf]2) z2 z2 z [Bdb] | %149
!ff! ([Bdb]8 | [Ace]2) z2 z2 .[Aca]2 | .[GBd]2 .[GBg]2 .[FAc]2 .[FAf]2 | %152
!ff! .[FGdf]2 z2 .[=EGBc=e]2 z2 | .[FAcf]2 z2 !fermata!z2 :| %154
V:2
 z2 | z8 | z2 [F,A,C]2 [F,A,C]2 [F,A,C]2 | [=E,G,B,C]2 z2 z4 | %4
 z2 [=E,G,B,C]2 [E,G,B,C]2 [E,G,B,C]2 | z2 [F,A,C]2 [F,A,C]2 [F,A,C]2 | %6
 z2 [G,B,=E]2 [G,B,E]2 [G,B,E]2 | z2 [A,CF]2 z2 [B,DG]2 | z2 [CG]2 !fermata!z2!p! .G,,2 | %9
 .C,2 ._E,2 .G,2 .C2 | (E3 (3=D/C/=B,/ .C2) .C2 | [CF]8 | [B,F]8 | [B,E]8 | [A,E]8 | %15
!<(! D4!<)!!mp!!>(! =D4!>)! | E2 z2 z2 E2 |!<(! F4!<)!!mp!!>(! F4!>)! | E2 z2 z2 E,2 | F,4 F,4 | %20
 E,EE,E E,EE,E | E,EE,E E,EE,E | E,2 E,2 E,EE,E | E,EE,E E,EE,E | E,2 E,2 E,EE,E | E,EE,E DEDE | %26
 CECE G,EG,E | A,EA,E F,=DA,D | E,EG,E F,=DA,D | E,EG,E _D,B,_F,B, | C,A,E,A, D,B,_F,B, | %31
 C,A,E,A, G,,G,E,G, | A,,A,E,A, B,,B,E,B, | C,2 E,4 A,2 | D,2 F,4 B,2 | E,2 A,4 C2 | %36
 (_D2 B,2 G,2 E,2) | C,,2 E,,4 A,,2 | D,,2 F,,4 B,,2 | E,,2 A,,4 C,2 | D,2 B,,2 G,,2 E,,2 | %41
 A,,2 .A,2 z2 .[=D,F,A,_C]2 | z2 .[E,A,=C]2 z2 .[E,B,_D]2 | z2 .[A,C]2 z2 .[=D,F,A,_C]2 | %44
 z2 .[E,A,=C]2 z2 .[E,B,_D]2 | z2 .[A,C]2 z2[K:treble] .[=DFA_c]2 | z2 .[EA=c]2 z2 .[EB_d]2 | %47
 ([A,B,DEG]8 | [A,CEA]2)[K:bass] z2 z2 :: z2 | z8 | z2 [A,CE]2 [A,CE]2 [A,CE]2 | %52
 z2 [G,B,DE]2 [G,B,DE]2 [G,B,DE]2 | z8 | z2 [G,B,D=E]2 [G,B,DE]2 [G,B,DE]2 | %55
 z2 [_G,B,D=E]2 [G,B,DE]2 [G,B,DE]2 | F,FF,F F,FF,F | F,FF,F F,FF,F | F,2 F,2 F,FF,F | %59
 F,FF,F F,FF,F | F,2 F,2 F,FF,F | F,FF,F EFEF | DFDF CFCF | B,FB,F _A,^FA,F | G,GG,G G,GG,G | %65
 G,GG,G G,GG,G | G,2 G,2 G,GG,G | G,GG,G G,GG,G | G,2 G,2 G,2 (A,2 | G,2 F,2 =D,2 =B,,2) | %70
!>(! (A,,3 G,,!>)!!p! .C,2) (_G,2 | F,2 E,2 C,2 =A,,2) |!>(! (_G,,3 F,,!>)!!p! .B,,2) (_F,2 | %73
 E,2 D,2 B,,2 =G,,2) | (_F,,2 E,,4) E,2- | E,2 C,4 C,,2- | C,,2 D,,4 D,2- | D,2 B,,4 B,,,2- | %78
 B,,,2 C,,4 C,2- | C,2 A,,4 A,,,2 | z2 B,,,4 B,,2 | z2 =B,,,4 =B,,2 | C,,C,=E,C, E,C,E,C, | %83
 F,C,F,C, F,C,A,C, | G,C,G,C, G,C,_B,C, | A,C,CC, =B,C,=DC, | CC,=E,C, E,C,G,C, | %87
 F,C,F,C, F,C,A,C, | G,C,G,C, G,C,_B,C, | A,C,CC, =B,C,=DC, | CC,CC, _B,C,B,C, | %91
 A,C,CC, =B,C,=DC, | CC,CC, _B,C,B,C, | A,C,CC, =B,C,=DC, | (.C2 .C2 .C2 .C2) | (.C2 .C2 .C2 .C2) | %96
 [C_D]2 [CD]2 [CD]2 [CD]2 | [B,D]2 [B,D]2 [B,D]2 [B,D]2 | [B,C]2 [B,C]2 [B,C]2 [B,C]2 | %99
 [A,C]2 [A,C]2 [A,C]2 [A,C]2 | [A,B,]2 [A,B,]2 [A,B,]2 [A,B,]2 | %101
 [G,B,=E]2 [G,B,E]2 [G,B,E]2 [G,B,E]2 | [F,A,C]2 z2 z4 | z2 [F,A,C]2 [F,A,C]2 [F,A,C]2 | %104
 [=E,G,B,C]2 z2 z4 | z2 [=E,G,B,C]2 [E,G,B,C]2 [E,G,B,C]2 | [F,A,C]4 z4 | [G,B,=E]4 z4 | %108
 [A,CF]2 z2 [B,DG]2 z2 | [CG]2 z2 !fermata!z2!p! .C,2 | .F,2 .A,2 .C2 .F2 | %111
[K:treble] (A3 (3G/F/=E/ .F2) .F2 | [F_G]8 | [E_G]8 | [E=A]8 | [DF]8 | (F6 =E2 | F2 G2 A2 F2) | %118
 (=E2 G2 F2 E2 | F2 B2 A2 F2) |[K:bass] C,CC,C C,CC,C | C,CC,C C,CC,C | C,2 C,2 C,CC,C | %123
 C,CC,C C,CC,C | C,2 C,2 C,CC,C | C,CC,C B,CB,C | A,FCF G,=EB,E | F,CA,C D,=B,F,B, | %128
 C,C=E,C D,=B,F,B, | C,C=E,C _B,,G,D,G, | A,,F,C,F, B,,G,D,G, | A,,F,C,F, =E,,=E,C,E, | %132
 F,,F,C,F, G,,G,C,G, | A,,2 C,4 F,2 | B,,2 D,4 G,2 | C,2 F,4 A,2 | (_B,2 G,2 =E,2 _B,,2) | %137
 A,,2 C,4 F,2 | B,,2 D,4 G,2 | C,2 F,4 A,2 | z2 C,,2 C,,2 C,,2 | F,,2 .F,2 z2 .[D,F,=B,]2 | %142
 z2 .[C,F,A,C]2 z2 .[C,G,_B,]2 | z2 .[F,A,]2 z2 .[D,F,A,=B,]2 | z2 .[C,F,A,C]2 z2 .[C,G,_B,]2 | %145
 z2 .[F,A,]2 z2[K:treble] .[DFA=B]2 | z2 .[CFAc]2 z2[K:bass] .[_B,CG]2 | ([=A,CF]8 | %148
 [B,DF]2) z2 z2 z [B,DF] | ([G,B,E]8 | [A,CE]2) z2 z2 .[F,D]2 | .[G,D]2 .[=E,C]2 .[F,C]2 .[D,D]2 | %152
 .[B,,D,G,B,]2 z2 .[C,=E,G,C]2 z2 | .[F,,A,,C,F,]2 z2 !fermata!z2 :| %154
V:3
 x2 | x8 | x8 | x8 | x8 | x8 | x8 | x8 | x8 | x8 | x8 | A8- | A3 (3(B/A/G/ .A2) .A2 | G8 | A8 | %15
 F8 | x8 | x8 | x8 | x8 | x8 | x8 | x8 | x8 | x8 | x8 | x8 | x8 | x8 | x8 | x8 | x8 | x8 | x8 | %34
 x8 | x8 | x8 | x8 | x8 | x8 | x8 | x8 | x8 | x8 | x8 | x8 | x8 | x8 | x6 :: x2 | x8 | x8 | x8 | %53
 x8 | x8 | x8 | x8 | x8 | x8 | x8 | x8 | x8 | x8 | x8 | x8 | x8 | x8 | x8 | x8 | x8 | F=DFD ECEC | %71
 ECEC ECEC | ECEC _DB,DB, | DB,DB, DB,DB, | DB,DB, DB,D!p!B, | CA,EA, E!p!A,EA, | %76
 DA,DA, DA,D!p!A, | DG,DG, D!p!G,DG, | CG,CG, CG,C!p!G, | A,F,CF, C!p!F,CF, | DF,DF, D!p!F,DF, | %81
 x8 | x8 | x8 | x8 | x8 | x8 | x8 | x8 | x8 | x8 | x8 | x8 | x8 | x8 | x8 | x8 | x8 | x8 | x8 | %100
 x8 | x8 | x8 | x8 | x8 | x8 | x8 | x8 | x8 | x8 | x8 | x8 | x8 | z2 z (3(_d/c/=B/ .c2) .c2 | c8- | %115
 c3 (3(c/B/=A/ .B2) .B2 | =B8- | B8 | x8 | x8 | x8 | x8 | x8 | x8 | x8 | x8 | x8 | x8 | x8 | x8 | %130
 x8 | x8 | x8 | x8 | x8 | x8 | x8 | x8 | x8 | x8 | x8 | x8 | x8 | x8 | x8 | x8 | x8 | x8 | x8 | %149
 x8 | x8 | x8 | x8 | x6 :| %154
V:4
 x2 | x8 | x8 | x8 | x8 | x8 | x8 | x8 | x8 | x8 | x8 | x8 | x8 | x8 | x8 | x8 | x6 C2 | D4 =D4 | %18
 E2 x4 C,2 | D,4 =D,4 | x8 | x8 | (D4 C2) x2 | x8 | (D4 C2) x2 | x8 | x8 | x8 | x8 | x8 | x8 | x8 | %32
 x8 | x8 | x8 | x8 | x8 | x8 | x8 | x8 | x8 | x8 | x8 | x8 | x8 | x6[K:treble] x2 | x8 | x8 | %48
 x2[K:bass] x4 :: x2 | x8 | x8 | x8 | x8 | x8 | x8 | x8 | x8 | (E4 D2) x2 | x8 | (E4 D2) x2 | x8 | %62
 x8 | x8 | x8 | x8 | (F4 E2) x2 | x8 | (F4 E2) x2 | x8 | x8 | x8 | x8 | x8 | x8 | x8 | x8 | x8 | %78
 x8 | x8 | x8 | x8 | x8 | x8 | x8 | x8 | x8 | x8 | x8 | x8 | x8 | x8 | x8 | x8 | x8 | x8 | x8 | %97
 x8 | x8 | x8 | x8 | x8 | x8 | x8 | x8 | x8 | x8 | x8 | x8 | x8 | x8 |[K:treble] x8 | x8 | x8 | %114
 x8 | x8 | =D8- | D8 | C8- | C4 _D4 |[K:bass] x8 | x8 | (B,4 A,2) x2 | x8 | (B,4 A,2) x2 | x8 | %126
 x8 | x8 | x8 | x8 | x8 | x8 | x8 | x8 | x8 | x8 | x8 | x8 | x8 | x8 | x8 | x8 | x8 | x8 | x8 | %145
 x6[K:treble] x2 | x6[K:bass] x2 | x8 | x8 | x8 | x8 | x8 | x8 | x6 :| %154

